lib/flags/s/HRV.svg

<svg xmlns="http://www.w3.org/2000/svg" fill="none" viewBox="0 0 16 12"><mask id="HRV_svg__a" width="16" height="12" x="0" y="0" mask-type="alpha" maskUnits="userSpaceOnUse"><path fill="#fff" d="M0 0H16V12H0z"/></mask><g mask="url(#HRV_svg__a)"><path fill="#F7FCFF" fill-rule="evenodd" d="M0 0V12H16V0H0Z" clip-rule="evenodd"/><mask id="HRV_svg__b" width="16" height="12" x="0" y="0" mask-type="alpha" maskUnits="userSpaceOnUse"><path fill="#fff" fill-rule="evenodd" d="M0 0V12H16V0H0Z" clip-rule="evenodd"/></mask><g mask="url(#HRV_svg__b)"><path fill="#E31D1C" fill-rule="evenodd" d="M0 0V4H16V0H0Z" clip-rule="evenodd"/><path fill="#3D58DB" fill-rule="evenodd" d="M0 8V12H16V8H0Z" clip-rule="evenodd"/><path fill="#E31D1C" d="M5.038 3.199H10.738V5.199H5.038z"/><path fill="#F7FCFF" stroke="#E31D1C" stroke-width=".563" d="M5.32614 4.47998H10.3904C10.399 4.86446 10.4015 5.53516 10.4015 6.18083C10.4015 6.59779 10.4004 6.99921 10.3993 7.29643L10.3978 7.65291L10.3973 7.75169L10.3972 7.7659L10.3969 7.76754C10.3947 7.78085 10.391 7.8018 10.3852 7.82928C10.3737 7.88433 10.3543 7.96513 10.3235 8.06304C10.2616 8.2597 10.1551 8.52045 9.97764 8.77953C9.63041 9.28648 8.99996 9.80771 7.82491 9.80771C6.65145 9.80771 6.05152 9.28718 5.73218 8.7851C5.5682 8.52728 5.47456 8.26743 5.42215 8.07092C5.39608 7.97315 5.38058 7.89243 5.37171 7.83744C5.36729 7.80998 5.36454 7.78906 5.36296 7.77578L5.362 7.76718L5.36173 7.74514L5.36055 7.64699L5.3563 7.29272C5.35279 6.99728 5.3481 6.59796 5.34342 6.18244C5.33626 5.54754 5.32912 4.87675 5.32614 4.47998ZM5.36117 7.75934C5.36116 7.7592 5.36116 7.75919 5.36117 7.75932L5.36117 7.75934Z"/><mask id="HRV_svg__c" width="6" height="7" x="5" y="4" mask-type="alpha" maskUnits="userSpaceOnUse"><path fill="#fff" stroke="#fff" stroke-width=".563" d="M5.32614 4.47998H10.3904C10.399 4.86446 10.4015 5.53516 10.4015 6.18083C10.4015 6.59779 10.4004 6.99921 10.3993 7.29643L10.3978 7.65291L10.3973 7.75169L10.3972 7.7659L10.3969 7.76754C10.3947 7.78085 10.391 7.8018 10.3852 7.82928C10.3737 7.88433 10.3543 7.96513 10.3235 8.06304C10.2616 8.2597 10.1551 8.52045 9.97764 8.77953C9.63041 9.28648 8.99996 9.80771 7.82491 9.80771C6.65145 9.80771 6.05152 9.28718 5.73218 8.7851C5.5682 8.52728 5.47456 8.26743 5.42215 8.07092C5.39608 7.97315 5.38058 7.89243 5.37171 7.83744C5.36729 7.80998 5.36454 7.78906 5.36296 7.77578L5.362 7.76718L5.36173 7.74514L5.36055 7.64699L5.3563 7.29272C5.35279 6.99728 5.3481 6.59796 5.34342 6.18244C5.33626 5.54754 5.32912 4.87675 5.32614 4.47998ZM5.36117 7.75934C5.36116 7.7592 5.36116 7.75919 5.36117 7.75932L5.36117 7.75934Z"/></mask><g mask="url(#HRV_svg__c)"><path fill="#F50100" fill-rule="evenodd" d="M5.24922 4.52002H6.30391V5.59097H5.24922V4.52002ZM7.3586 5.59097H6.30391V6.66192H5.24922V7.73287H6.30391V8.80382H5.24922V9.87477H6.30391V8.80382H7.3586V9.87477H8.41328V8.80382H9.46797V9.87477H10.5227V8.80382H9.46797V7.73287H10.5227V6.66192H9.46797V5.59097H10.5227V4.52002H9.46797V5.59097H8.41328V4.52002H7.3586V5.59097ZM7.3586 6.66192V5.59097H8.41328V6.66192H7.3586ZM7.3586 7.73287V6.66192H6.30391V7.73287H7.3586ZM8.41328 7.73287V8.80382H7.3586V7.73287H8.41328ZM8.41328 7.73287V6.66192H9.46797V7.73287H8.41328Z" clip-rule="evenodd"/></g><path fill="#56C6F5" fill-rule="evenodd" stroke="#fff" stroke-width=".15" d="M5.22653 4.0814C5.22653 4.0814 5.55275 3.90715 5.83099 3.81735 6.10923 3.72755 6.32915 3.67849 6.32915 3.67849L5.91518 2.15244 5.08602 1.84265 4.61641 2.6167 5.22653 4.0814zM7.27039 3.53794C7.27039 3.53794 7.54859 3.51311 7.84091 3.51879 8.13323 3.52447 8.38052 3.52654 8.38052 3.52654L8.5233 2.02181 7.89713 1.45611 7.2011 2.0351 7.27039 3.53794z" clip-rule="evenodd"/><path fill="#2E42A5" stroke="#fff" stroke-width=".15" d="M6.23424 3.66601L6.25585 3.73942L6.32881 3.71634L6.32881 3.71634L6.32884 3.71633L6.32899 3.71628L6.32963 3.71608L6.33226 3.71526L6.34258 3.71205L6.38122 3.70029C6.41412 3.69041 6.45997 3.67697 6.51179 3.66271C6.61648 3.63389 6.74171 3.60277 6.83367 3.58999C6.92812 3.57687 7.04503 3.56736 7.13934 3.56112C7.18628 3.55801 7.22721 3.55574 7.25639 3.55425L7.29058 3.55259L7.29968 3.55218L7.30199 3.55208L7.30256 3.55206L7.3027 3.55206L7.30272 3.55205L7.30273 3.55205L7.38111 3.54883L7.37437 3.47067L7.24823 2.00846L7.24525 1.97387L7.21694 1.95376L6.53558 1.46986L6.48297 1.4325L6.43817 1.47894L5.81893 2.12089L5.78864 2.15229L5.80096 2.19414L6.23424 3.66601Z"/><mask width="3" height="3" x="5" y="1" mask-type="alpha" maskUnits="userSpaceOnUse"><path fill="#fff" stroke="#fff" stroke-width=".15" d="M6.23424 3.66601L6.25585 3.73942L6.32881 3.71634L6.32881 3.71634L6.32884 3.71633L6.32899 3.71628L6.32963 3.71608L6.33226 3.71526L6.34258 3.71205L6.38122 3.70029C6.41412 3.69041 6.45997 3.67697 6.51179 3.66271C6.61648 3.63389 6.74171 3.60277 6.83367 3.58999C6.92812 3.57687 7.04503 3.56736 7.13934 3.56112C7.18628 3.55801 7.22721 3.55574 7.25639 3.55425L7.29058 3.55259L7.29968 3.55218L7.30199 3.55208L7.30256 3.55206L7.3027 3.55206L7.30272 3.55205L7.30273 3.55205L7.38111 3.54883L7.37437 3.47067L7.24823 2.00846L7.24525 1.97387L7.21694 1.95376L6.53558 1.46986L6.48297 1.4325L6.43817 1.47894L5.81893 2.12089L5.78864 2.15229L5.80096 2.19414L6.23424 3.66601Z"/></mask><path fill="#2E42A5" stroke="#fff" stroke-width=".15" d="M9.47002 3.66437L9.44963 3.73995L9.375 3.71634L9.37499 3.71634L9.37496 3.71633L9.37481 3.71628L9.37417 3.71608L9.37155 3.71526L9.36122 3.71205L9.32258 3.70029C9.28969 3.69041 9.24383 3.67697 9.19201 3.66271C9.08732 3.63389 8.96209 3.60277 8.87013 3.58999C8.77568 3.57687 8.65877 3.56736 8.56446 3.56112C8.51752 3.55801 8.47659 3.55574 8.44741 3.55425L8.41323 3.55259L8.40412 3.55218L8.40181 3.55208L8.40124 3.55206L8.40111 3.55206L8.40108 3.55205L8.40108 3.55205L8.32269 3.54883L8.32943 3.47067L8.45557 2.00846L8.45855 1.97387L8.48687 1.95376L9.16823 1.46986L9.22232 1.43144L9.26704 1.48044L9.85089 2.11997L9.87863 2.15036L9.86791 2.19008L9.47002 3.66437Z"/><mask width="2" height="3" x="8" y="1" mask-type="alpha" maskUnits="userSpaceOnUse"><path fill="#fff" stroke="#fff" stroke-width=".15" d="M9.47002 3.66437L9.44963 3.73995L9.375 3.71634L9.37499 3.71634L9.37496 3.71633L9.37481 3.71628L9.37417 3.71608L9.37155 3.71526L9.36122 3.71205L9.32258 3.70029C9.28969 3.69041 9.24383 3.67697 9.19201 3.66271C9.08732 3.63389 8.96209 3.60277 8.87013 3.58999C8.77568 3.57687 8.65877 3.56736 8.56446 3.56112C8.51752 3.55801 8.47659 3.55574 8.44741 3.55425L8.41323 3.55259L8.40412 3.55218L8.40181 3.55208L8.40124 3.55206L8.40111 3.55206L8.40108 3.55205L8.40108 3.55205L8.32269 3.54883L8.32943 3.47067L8.45557 2.00846L8.45855 1.97387L8.48687 1.95376L9.16823 1.46986L9.22232 1.43144L9.26704 1.48044L9.85089 2.11997L9.87863 2.15036L9.86791 2.19008L9.47002 3.66437Z"/></mask><path fill="#56C6F5" stroke="#fff" stroke-width=".15" d="M10.6304 4.07315L10.598 4.14777L10.5262 4.10945L10.5262 4.10945L10.5262 4.10945L10.5262 4.10943L10.5261 4.10936L10.5254 4.10902L10.5228 4.10763L10.5123 4.10212C10.5031 4.09729 10.4895 4.09027 10.4723 4.08153C10.4379 4.06406 10.3891 4.03981 10.3317 4.0128C10.2165 3.95852 10.0687 3.89407 9.93407 3.85062C9.79658 3.80625 9.67344 3.77192 9.5847 3.7487C9.54035 3.73709 9.50465 3.72827 9.48012 3.72237L9.45203 3.71574L9.44487 3.71409L9.44311 3.7137L9.44271 3.71361L9.44262 3.71359L9.44261 3.71358L9.44261 3.71358L9.44261 3.71358L9.36508 3.69629L9.3868 3.61988L9.8098 2.13193L9.82017 2.09546L9.85569 2.08218L10.6849 1.77239L10.743 1.75066L10.7752 1.80375L11.2448 2.5778L11.265 2.61097L11.2495 2.64656L10.6304 4.07315Z"/><mask width="3" height="4" x="9" y="1" mask-type="alpha" maskUnits="userSpaceOnUse"><path fill="#fff" stroke="#fff" stroke-width=".15" d="M10.6304 4.07315L10.598 4.14777L10.5262 4.10945L10.5262 4.10945L10.5262 4.10945L10.5262 4.10943L10.5261 4.10936L10.5254 4.10902L10.5228 4.10763L10.5123 4.10212C10.5031 4.09729 10.4895 4.09027 10.4723 4.08153C10.4379 4.06406 10.3891 4.03981 10.3317 4.0128C10.2165 3.95852 10.0687 3.89407 9.93407 3.85062C9.79658 3.80625 9.67344 3.77192 9.5847 3.7487C9.54035 3.73709 9.50465 3.72827 9.48012 3.72237L9.45203 3.71574L9.44487 3.71409L9.44311 3.7137L9.44271 3.71361L9.44262 3.71359L9.44261 3.71358L9.44261 3.71358L9.44261 3.71358L9.36508 3.69629L9.3868 3.61988L9.8098 2.13193L9.82017 2.09546L9.85569 2.08218L10.6849 1.77239L10.743 1.75066L10.7752 1.80375L11.2448 2.5778L11.265 2.61097L11.2495 2.64656L10.6304 4.07315Z"/></mask></g></g></svg>

<svg xmlns="http://www.w3.org/2000/svg" fill="none" viewBox="0 0 16 12"><g mask="url(#HRV_svg__HR_-_Croatia_(Hrvatska)"><path fill="#F7FCFF" fill-rule="evenodd" d="M0 0v12h16V0H0z" clip-rule="evenodd"/><g mask="url(#HRV_svg__HR_-_Croatia_(Hrvatska)"><path fill="#E31D1C" fill-rule="evenodd" d="M0 0v4h16V0H0z" clip-rule="evenodd"/><path fill="#3D58DB" fill-rule="evenodd" d="M0 8v4h16V8H0z" clip-rule="evenodd"/><path fill="#E31D1C" d="M5.038 3.199h5.7v2h-5.7z"/><path fill="#F7FCFF" stroke="#E31D1C" stroke-width=".563" d="M5.326 4.48h5.064c.009.384.012 1.055.011 1.7 0 .418 0 .82-.002 1.116l-.001.357v.113l-.001.001a2.474 2.474 0 01-.074.295 2.73 2.73 0 01-.345.717C9.63 9.286 9 9.808 7.825 9.808c-1.174 0-1.773-.52-2.093-1.023a2.584 2.584 0 01-.369-1.01l-.001-.008v-.022l-.001-.098-.005-.354a1915.707 1915.707 0 01-.03-2.813zm.035 3.28s0 0 0 0h0z"/><g mask="url(#HRV_svg__HR_-_Croatia_(Hrvatska)"><path fill="#F50100" fill-rule="evenodd" d="M5.25 4.52h1.054v1.07H5.249V4.52zm2.109 1.07H6.304v1.072H5.249v1.07h1.055v1.072H5.249v1.07h1.055v-1.07h1.055v1.07h1.054v-1.07h1.055v1.07h1.055v-1.07H9.468V7.733h1.055V6.662H9.468V5.59h1.055V4.52H9.468v1.07H8.413V4.52H7.36v1.07zm0 1.072V5.59h1.054v1.07H7.36zm0 1.07v-1.07H6.304v1.07h1.055zm1.054 0v1.072H7.36V7.733h1.054zm0 0v-1.07h1.055v1.07H8.413z" clip-rule="evenodd"/></g><path fill="#56C6F5" fill-rule="evenodd" stroke="#fff" stroke-width=".15" d="M5.227 4.081s.326-.174.604-.264c.278-.09.498-.139.498-.139l-.414-1.526-.829-.31-.47.775.61 1.464zm2.043-.543s.279-.025.57-.02c.293.006.54.009.54.009l.143-1.505-.626-.566-.696.58.07 1.502z" clip-rule="evenodd"/><path fill="#2E42A5" stroke="#fff" stroke-width=".15" d="M6.234 3.666l.022.073.073-.023h.003l.01-.004.04-.012.13-.037c.104-.03.23-.06.322-.073a4.596 4.596 0 01.422-.036l.035-.001H7.3l.002-.001h0l.08-.003-.008-.078-.126-1.463-.003-.034-.028-.02-.681-.484-.053-.038-.045.047-.619.642-.03.031.012.042.433 1.472zm3.236-.002l-.02.076-.075-.024h0-.003l-.01-.004-.04-.012a5.938 5.938 0 00-.13-.037 2.826 2.826 0 00-.322-.073 4.597 4.597 0 00-.423-.036l-.034-.001h-.009l-.002-.001h0l-.08-.003.007-.078.127-1.463.003-.034.028-.02.681-.484.054-.039.045.05.584.639.028.03-.011.04-.398 1.474z"/><path fill="#56C6F5" stroke="#fff" stroke-width=".15" d="M10.63 4.073l-.032.075-.072-.039h0l-.003-.001-.01-.006-.04-.02a3.55 3.55 0 00-.538-.23 6.56 6.56 0 00-.455-.13l-.028-.006-.007-.002h-.002 0l-.078-.018.022-.076.423-1.488.01-.037.036-.013.829-.31.058-.021.032.053.47.774.02.033-.015.035-.62 1.427z"/></g></g></svg>
